icon-svg/radio1.svg

<svg xmlns="http://www.w3.org/2000/svg" fill="#44739e" viewBox="0 0 24 24"><path d="M22 8.623c0 4.388-4.478 12.851-10 12.851S2 13.011 2 8.623s4.478-6.1 10-6.1 10 1.711 10 6.1m-11.391.711.413-.288.539-.38a.877.877 0 0 0 .307-1.275.86.86 0 0 0-1.289-.143l-.538.385.978 1.4-1.58-.989-.38.269.389 1.8-.634-.238a.588.588 0 0 0-.369-.884.768.768 0 0 0-.569.173l-.668.469.992 1.413.394-.269-.3-.43.176-.12.584.229.446-.316.369-.269-.091-.338.539-.385Zm.213-1.746a.448.448 0 0 1 .731.34.425.425 0 0 1-.227.376l-.158.111-.5-.714zm-2.5 2.248-.27.183-.239-.342.268-.177c.129-.089.253-.092.331.022s.044.229-.089.32Zm1.347-.69-.121-.513.44.291Zm2.825-2.179a.9.9 0 1 0-.162-.513.9.9 0 0 0 .162.513m.491-.919a.45.45 0 0 1 .253-.079.443.443 0 0 1 .377.209.44.44 0 0 1 .093.269.444.444 0 0 1-.185.359.45.45 0 0 1-.633-.127.442.442 0 0 1 .1-.631zm-1.5.56.992 1.418.393-.276-.992-1.418Zm-.9 10.78h3.588V7.474L10.59 9.987Z"/></svg>

<?xml version="1.0" encoding="UTF-8"?>
<svg width="24px" fill="#44739e" height="24px" viewBox="0 0 24 24" version="1.1" xmlns="http://www.w3.org/2000/svg" xmlns:xlink="http://www.w3.org/1999/xlink">
            <path d="m 22,8.623 c 0,4.388 -4.478,12.851 -10,12.851 -5.522,0 -10,-8.463 -10,-12.851 0,-4.388 4.478,-6.1 10,-6.1 5.522,0 10,1.711 10,6.1 z M 10.609,9.334 11.022,9.046 11.561,8.666 A 0.877,0.877 0 0 0 11.868,7.391 0.86,0.86 0 0 0 10.579,7.248 l -0.538,0.385 0.978,1.4 -1.58,-0.989 -0.38,0.269 0.389,1.8 L 8.814,9.875 A 0.588,0.588 0 0 0 8.445,8.991 0.768,0.768 0 0 0 7.876,9.164 L 7.208,9.633 8.2,11.046 8.594,10.777 8.294,10.347 8.47,10.227 9.054,10.456 9.5,10.14 9.869,9.871 9.778,9.533 10.317,9.148 Z m 0.213,-1.746 a 0.448,0.448 0 0 1 0.731,0.34 0.425,0.425 0 0 1 -0.227,0.376 l -0.158,0.111 -0.5,-0.714 z M 8.322,9.836 8.052,10.019 7.813,9.677 8.081,9.5 C 8.21,9.411 8.334,9.408 8.412,9.522 8.49,9.636 8.456,9.751 8.323,9.842 Z M 9.669,9.146 9.548,8.633 9.988,8.924 Z m 2.825,-2.179 a 0.9,0.9 0 1 0 -0.162,-0.513 0.9,0.9 0 0 0 0.162,0.513 z m 0.491,-0.919 a 0.448,0.448 0 0 1 0.253,-0.079 0.443,0.443 0 0 1 0.377,0.209 0.439,0.439 0 0 1 0.093,0.269 0.444,0.444 0 0 1 -0.185,0.359 0.45,0.45 0 0 1 -0.633,-0.127 0.442,0.442 0 0 1 0.1,-0.631 z m -1.5,0.56 0.992,1.418 L 12.87,7.75 11.878,6.332 Z m -0.9,10.78 h 3.588 V 7.474 L 10.59,9.987 Z"/>

</svg>
